assets/icons/social/youtube_icon.svg

<svg width="50" height="50" viewBox="0 0 50 50" fill="none" xmlns="http://www.w3.org/2000/svg">
<circle cx="25" cy="25" r="24" stroke="black" stroke-width="2"/>
<path d="M36.8042 18.8758C36.671 18.3434 36.3996 17.8557 36.0175 17.4617C35.6354 17.0678 35.1561 16.7817 34.628 16.6323C32.6986 16.1611 24.9808 16.1611 24.9808 16.1611C24.9808 16.1611 17.263 16.1611 15.3335 16.6771C14.8054 16.8266 14.3261 17.1127 13.944 17.5066C13.5619 17.9005 13.2905 18.3883 13.1573 18.9207C12.8042 20.8788 12.6314 22.8652 12.6413 24.8549C12.6287 26.8595 12.8014 28.8611 13.1573 30.8339C13.3042 31.3498 13.5817 31.819 13.9629 32.1963C14.3441 32.5736 14.8162 32.8462 15.3335 32.9877C17.263 33.5037 24.9808 33.5037 24.9808 33.5037C24.9808 33.5037 32.6986 33.5037 34.628 32.9877C35.1561 32.8383 35.6354 32.5522 36.0175 32.1583C36.3996 31.7643 36.671 31.2766 36.8042 30.7442C37.1546 28.8008 37.3273 26.8296 37.3203 24.8549C37.3328 22.8502 37.1601 20.8487 36.8042 18.8758V18.8758Z" stroke="black" stroke-width="2" stroke-linecap="round" stroke-linejoin="round"/>
<path d="M22.4565 28.5229L28.9067 24.8547L22.4565 21.1865V28.5229Z" stroke="black" stroke-width="2" stroke-linecap="round" stroke-linejoin="round"/>
</svg>

<?xml version="1.0" encoding="utf-8"?>
<!-- Generator: Adobe Illustrator 27.4.0, SVG Export Plug-In . SVG Version: 6.00 Build 0)  -->
<svg version="1.1" id="Layer_1" xmlns="http://www.w3.org/2000/svg" xmlns:xlink="http://www.w3.org/1999/xlink" x="0px" y="0px"
	 viewBox="0 0 50 50" style="enable-background:new 0 0 50 50;" xml:space="preserve">
<style type="text/css">
	.st0{fill:none;stroke:#FFFFFF;stroke-width:2;}
	.st1{fill:none;stroke:#FFFFFF;stroke-width:2;stroke-linecap:round;stroke-linejoin:round;}
</style>
<circle class="st0" cx="25" cy="25" r="24"/>
<path class="st1" d="M36.8,18.9c-0.1-0.5-0.4-1-0.8-1.4c-0.4-0.4-0.9-0.7-1.4-0.8c-1.9-0.5-9.6-0.5-9.6-0.5s-7.7,0-9.6,0.5
	c-0.5,0.1-1,0.4-1.4,0.8s-0.7,0.9-0.8,1.4c-0.4,2-0.5,3.9-0.5,5.9c0,2,0.2,4,0.5,6c0.1,0.5,0.4,1,0.8,1.4c0.4,0.4,0.9,0.6,1.4,0.8
	c1.9,0.5,9.6,0.5,9.6,0.5s7.7,0,9.6-0.5c0.5-0.1,1-0.4,1.4-0.8c0.4-0.4,0.7-0.9,0.8-1.4c0.4-1.9,0.5-3.9,0.5-5.9
	C37.3,22.9,37.2,20.8,36.8,18.9L36.8,18.9z"/>
<path class="st1" d="M22.5,28.5l6.5-3.7l-6.5-3.7V28.5z"/>
</svg>
